{
 "type": "map",
 "version": "1.10",
 "tiledversion": "1.12.2",
 "orientation": "orthogonal",
 "renderorder": "right-down",
 "width": 30,
 "height": 22,
 "tilewidth": 64,
 "tileheight": 64,
 "infinite": false,
 "properties": [
  {
   "name": "id",
   "type": "string",
   "value": "ban-pak-ao"
  },
  {
   "name": "name",
   "type": "string",
   "value": "บ้านปากอ่าว"
  }
 ],
 "layers": [
  {
   "id": 1,
   "name": "ground",
   "type": "tilelayer",
   "width": 30,
   "height": 22,
   "x": 0,
   "y": 0,
   "opacity": 1,
   "visible": true,
   "data": [
    6,
    6,
    6,
    6,
    6,
    6,
    6,
    6,
    3,
    3,
    6,
    6,
    4,
    4,
    1,
    6,
    6,
    6,
    6,
    6,
    6,
    6,
    6,
    6,
    6,
    6,
    6,
    6,
    6,
    6,
    6,
    6,
    6,
    6,
    6,
    6,
    6,
    6,
    3,
    3,
    6,
    1,
    4,
    4,
    1,
    1,
    1,
    6,
    1,
    1,
    6,
    6,
    1,
    1,
    6,
    1,
    1,
    6,
    6,
    6,
    6,
    6,
    6,
    6,
    6,
    6,
    6,
    6,
    1,
    3,
    3,
    1,
    4,
    4,
    1,
    1,
    1,
    1,
    5,
    5,
    5,
    5,
    5,
    3,
    5,
    5,
    5,
    1,
    6,
    6,
    6,
    6,
    6,
    6,
    1,
    1,
    6,
    1,
    1,
    1,
    3,
    3,
    4,
    4,
    1,
    1,
    1,
    1,
    5,
    5,
    5,
    5,
    5,
    3,
    5,
    5,
    5,
    1,
    6,
    6,
    6,
    6,
    6,
    6,
    1,
    1,
    1,
    1,
    1,
    1,
    3,
    3,
    1,
    4,
    1,
    1,
    1,
    1,
    3,
    3,
    3,
    3,
    3,
    3,
    3,
    3,
    3,
    3,
    6,
    6,
    6,
    6,
    6,
    6,
    1,
    1,
    1,
    1,
    1,
    1,
    3,
    3,
    1,
    4,
    1,
    1,
    1,
    1,
    5,
    5,
    5,
    5,
    5,
    3,
    5,
    5,
    5,
    1,
    6,
    6,
    6,
    6,
    1,
    1,
    1,
    1,
    1,
    1,
    1,
    3,
    3,
    3,
    1,
    4,
    1,
    1,
    1,
    1,
    5,
    5,
    5,
    5,
    5,
    3,
    5,
    5,
    5,
    1,
    6,
    6,
    6,
    6,
    1,
    1,
    1,
    1,
    1,
    4,
    1,
    3,
    3,
    3,
    1,
    4,
    4,
    1,
    1,
    1,
    5,
    5,
    1,
    5,
    5,
    3,
    5,
    5,
    1,
    1,
    6,
    6,
    6,
    6,
    1,
    1,
    1,
    1,
    4,
    1,
    1,
    1,
    3,
    3,
    1,
    1,
    4,
    1,
    1,
    1,
    1,
    4,
    1,
    1,
    1,
    1,
    1,
    1,
    1,
    1,
    6,
    6,
    6,
    6,
    1,
    1,
    1,
    1,
    4,
    1,
    1,
    1,
    1,
    3,
    3,
    1,
    4,
    4,
    1,
    1,
    4,
    1,
    1,
    1,
    1,
    1,
    1,
    1,
    1,
    1,
    6,
    6,
    6,
    6,
    1,
    1,
    1,
    1,
    4,
    1,
    1,
    1,
    1,
    1,
    3,
    1,
    1,
    4,
    4,
    4,
    4,
    4,
    1,
    1,
    4,
    1,
    1,
    4,
    4,
    4,
    4,
    4,
    4,
    4,
    1,
    1,
    1,
    4,
    4,
    1,
    1,
    1,
    1,
    1,
    3,
    3,
    1,
    1,
    4,
    4,
    4,
    4,
    4,
    4,
    4,
    4,
    4,
    4,
    4,
    1,
    1,
    1,
    4,
    4,
    4,
    4,
    4,
    4,
    4,
    4,
    1,
    1,
    1,
    1,
    3,
    3,
    1,
    1,
    4,
    4,
    4,
    4,
    4,
    1,
    1,
    1,
    1,
    1,
    1,
    1,
    6,
    6,
    6,
    1,
    1,
    1,
    4,
    4,
    1,
    4,
    4,
    4,
    4,
    1,
    3,
    3,
    3,
    1,
    4,
    1,
    1,
    1,
    1,
    1,
    1,
    2,
    2,
    2,
    2,
    1,
    6,
    6,
    6,
    6,
    1,
    1,
    1,
    1,
    2,
    2,
    2,
    2,
    2,
    2,
    3,
    3,
    3,
    3,
    1,
    1,
    1,
    1,
    2,
    2,
    2,
    2,
    2,
    2,
    2,
    1,
    6,
    6,
    6,
    2,
    1,
    2,
    2,
    2,
    3,
    3,
    3,
    3,
    3,
    3,
    3,
    3,
    3,
    3,
    3,
    3,
    2,
    2,
    3,
    3,
    3,
    3,
    3,
    3,
    3,
    2,
    2,
    6,
    3,
    3,
    2,
    3,
    3,
    3,
    3,
    3,
    3,
    3,
    3,
    3,
    3,
    3,
    3,
    3,
    3,
    3,
    3,
    3,
    3,
    3,
    3,
    3,
    3,
    3,
    3,
    3,
    3,
    3,
    3,
    3,
    3,
    3,
    3,
    3,
    3,
    3,
    3,
    3,
    3,
    3,
    3,
    3,
    3,
    3,
    3,
    3,
    3,
    3,
    3,
    3,
    3,
    3,
    3,
    3,
    3,
    3,
    3,
    3,
    3,
    3,
    3,
    3,
    3,
    3,
    3,
    3,
    3,
    3,
    3,
    3,
    3,
    3,
    3,
    3,
    3,
    3,
    3,
    3,
    3,
    3,
    3,
    3,
    3,
    3,
    3,
    3,
    3,
    3,
    3,
    3,
    3,
    3,
    3,
    3,
    3,
    3,
    3,
    3,
    3,
    3,
    3,
    3,
    3,
    3,
    3,
    3,
    3,
    3,
    3,
    3,
    3,
    3,
    3,
    3,
    3,
    3,
    3,
    3,
    3,
    3,
    3,
    3,
    3,
    3,
    3,
    3,
    3,
    3,
    3,
    3,
    3,
    3,
    3,
    3,
    3,
    3,
    3,
    3,
    3,
    3,
    3,
    3,
    3,
    3,
    3,
    3,
    3,
    3,
    3,
    3,
    3,
    3,
    3,
    3,
    3,
    3,
    3,
    3,
    3,
    3,
    3,
    3,
    3,
    3,
    3,
    3,
    3,
    3,
    3,
    3,
    3,
    3,
    3,
    3,
    3,
    3,
    3,
    3
   ]
  },
  {
   "id": 2,
   "name": "block",
   "type": "tilelayer",
   "width": 30,
   "height": 22,
   "x": 0,
   "y": 0,
   "opacity": 0.6,
   "visible": true,
   "data": [
    0,
    0,
    0,
    0,
    0,
    0,
    0,
    0,
    0,
    0,
    0,
    0,
    0,
    0,
    0,
    0,
    0,
    0,
    0,
    0,
    0,
    0,
    0,
    0,
    0,
    0,
    0,
    0,
    0,
    0,
    0,
    0,
    0,
    0,
    0,
    0,
    0,
    0,
    0,
    0,
    0,
    0,
    0,
    0,
    0,
    0,
    0,
    0,
    0,
    0,
    0,
    0,
    0,
    0,
    0,
    0,
    0,
    0,
    0,
    0,
    0,
    0,
    0,
    0,
    0,
    0,
    0,
    0,
    0,
    0,
    0,
    0,
    0,
    0,
    0,
    0,
    0,
    0,
    0,
    0,
    0,
    0,
    0,
    0,
    0,
    0,
    0,
    0,
    0,
    0,
    0,
    0,
    0,
    0,
    0,
    0,
    0,
    0,
    0,
    0,
    0,
    0,
    0,
    0,
    0,
    0,
    0,
    0,
    0,
    0,
    0,
    0,
    0,
    0,
    0,
    0,
    0,
    0,
    0,
    0,
    0,
    0,
    0,
    0,
    0,
    0,
    0,
    0,
    0,
    0,
    0,
    0,
    0,
    0,
    0,
    0,
    0,
    0,
    0,
    0,
    0,
    0,
    0,
    0,
    0,
    0,
    0,
    0,
    0,
    0,
    0,
    0,
    0,
    0,
    0,
    0,
    0,
    0,
    0,
    0,
    0,
    0,
    0,
    0,
    0,
    0,
    0,
    0,
    0,
    0,
    0,
    0,
    0,
    0,
    0,
    0,
    0,
    0,
    0,
    0,
    0,
    0,
    0,
    0,
    0,
    0,
    0,
    0,
    0,
    0,
    0,
    0,
    0,
    0,
    0,
    0,
    0,
    0,
    0,
    0,
    0,
    0,
    0,
    0,
    0,
    0,
    0,
    0,
    0,
    0,
    0,
    0,
    0,
    0,
    0,
    0,
    0,
    0,
    0,
    0,
    0,
    0,
    0,
    0,
    0,
    0,
    0,
    0,
    0,
    0,
    0,
    0,
    0,
    0,
    0,
    0,
    0,
    0,
    0,
    0,
    0,
    0,
    0,
    0,
    0,
    0,
    0,
    0,
    0,
    0,
    0,
    0,
    0,
    0,
    0,
    0,
    0,
    0,
    0,
    0,
    0,
    0,
    0,
    0,
    0,
    0,
    0,
    0,
    0,
    0,
    0,
    0,
    0,
    0,
    0,
    0,
    0,
    0,
    0,
    0,
    0,
    0,
    0,
    0,
    0,
    0,
    0,
    0,
    0,
    0,
    0,
    0,
    0,
    0,
    0,
    0,
    0,
    0,
    0,
    0,
    0,
    0,
    0,
    0,
    0,
    0,
    0,
    0,
    0,
    0,
    0,
    0,
    0,
    0,
    0,
    0,
    0,
    0,
    0,
    0,
    0,
    0,
    0,
    0,
    0,
    0,
    0,
    0,
    0,
    0,
    0,
    0,
    0,
    0,
    0,
    0,
    0,
    0,
    0,
    0,
    0,
    0,
    0,
    0,
    0,
    0,
    0,
    0,
    0,
    0,
    0,
    0,
    0,
    0,
    0,
    0,
    0,
    0,
    0,
    0,
    0,
    0,
    0,
    0,
    0,
    0,
    0,
    0,
    0,
    0,
    0,
    0,
    0,
    0,
    0,
    0,
    0,
    0,
    0,
    0,
    0,
    0,
    0,
    0,
    0,
    0,
    0,
    0,
    0,
    0,
    0,
    0,
    0,
    0,
    0,
    0,
    0,
    0,
    0,
    0,
    0,
    0,
    0,
    0,
    0,
    0,
    0,
    0,
    0,
    0,
    0,
    0,
    0,
    0,
    0,
    0,
    0,
    0,
    0,
    0,
    0,
    0,
    0,
    0,
    0,
    0,
    0,
    0,
    0,
    0,
    0,
    0,
    0,
    0,
    0,
    0,
    0,
    0,
    0,
    0,
    0,
    0,
    0,
    0,
    0,
    0,
    0,
    0,
    0,
    0,
    0,
    0,
    0,
    0,
    0,
    0,
    0,
    0,
    0,
    0,
    0,
    0,
    0,
    0,
    0,
    0,
    0,
    0,
    0,
    0,
    0,
    0,
    0,
    0,
    0,
    0,
    0,
    0,
    0,
    0,
    0,
    0,
    0,
    0,
    0,
    0,
    0,
    0,
    0,
    0,
    0,
    0,
    0,
    0,
    0,
    0,
    0,
    0,
    0,
    0,
    0,
    0,
    0,
    0,
    0,
    0,
    0,
    0,
    0,
    0,
    0,
    0,
    0,
    0,
    0,
    0,
    0,
    0,
    0,
    0,
    0,
    0,
    0,
    0,
    0,
    0,
    0,
    0,
    0,
    0,
    0,
    0,
    0,
    0,
    0,
    0,
    0,
    0,
    0,
    0,
    0,
    0,
    0,
    0,
    0,
    0,
    0,
    0,
    0,
    0,
    0,
    0,
    0,
    0,
    0,
    0,
    0,
    0,
    0,
    0,
    0,
    0,
    0,
    0,
    0,
    0,
    0,
    0,
    0,
    0,
    0,
    0,
    0,
    0,
    0,
    0,
    0,
    0,
    0,
    0,
    0,
    0,
    0,
    0,
    0,
    0,
    0,
    0,
    0,
    0,
    0,
    0,
    0,
    0,
    0,
    0,
    0,
    0,
    0,
    0,
    0,
    0,
    0,
    0,
    0,
    0,
    0,
    0,
    0,
    0,
    0,
    0,
    0,
    0,
    0,
    0,
    0,
    0,
    0,
    0,
    0,
    0,
    0,
    0,
    0,
    0,
    0,
    0,
    0,
    0,
    0,
    0,
    0,
    0,
    0,
    0,
    0,
    0,
    0,
    0,
    0,
    0,
    0,
    0,
    0,
    0,
    0,
    0,
    0,
    0,
    0,
    0,
    0,
    0,
    0,
    0,
    0,
    0,
    0,
    0
   ]
  },
  {
   "id": 3,
   "name": "props",
   "type": "objectgroup",
   "draworder": "topdown",
   "opacity": 1,
   "visible": true,
   "x": 0,
   "y": 0,
   "objects": [
    {
     "id": 1,
     "name": "",
     "type": "",
     "rotation": 0,
     "visible": true,
     "gid": 19,
     "x": 896,
     "y": 1011,
     "width": 64,
     "height": 64
    },
    {
     "id": 2,
     "name": "",
     "type": "",
     "rotation": 0,
     "visible": true,
     "gid": 38,
     "x": 755,
     "y": 1030,
     "width": 64,
     "height": 64
    },
    {
     "id": 3,
     "name": "",
     "type": "",
     "rotation": 0,
     "visible": true,
     "gid": 38,
     "x": 684,
     "y": 1030,
     "width": 64,
     "height": 64
    },
    {
     "id": 4,
     "name": "",
     "type": "",
     "rotation": 0,
     "visible": true,
     "gid": 38,
     "x": 614,
     "y": 1030,
     "width": 64,
     "height": 64
    },
    {
     "id": 5,
     "name": "",
     "type": "",
     "rotation": 0,
     "visible": true,
     "gid": 40,
     "x": 544,
     "y": 1068,
     "width": 64,
     "height": 64
    },
    {
     "id": 6,
     "name": "",
     "type": "",
     "rotation": 0,
     "visible": true,
     "gid": 38,
     "x": 1036,
     "y": 1030,
     "width": 64,
     "height": 64
    },
    {
     "id": 7,
     "name": "",
     "type": "",
     "rotation": 0,
     "visible": true,
     "gid": 38,
     "x": 1107,
     "y": 1030,
     "width": 64,
     "height": 64
    },
    {
     "id": 8,
     "name": "",
     "type": "",
     "rotation": 0,
     "visible": true,
     "gid": 35,
     "x": 1184,
     "y": 1062,
     "width": 64,
     "height": 64
    },
    {
     "id": 9,
     "name": "",
     "type": "",
     "rotation": 0,
     "visible": true,
     "gid": 39,
     "x": 1184,
     "y": 1145,
     "width": 64,
     "height": 64
    },
    {
     "id": 10,
     "name": "",
     "type": "",
     "rotation": 0,
     "visible": true,
     "gid": 36,
     "x": 1184,
     "y": 1222,
     "width": 64,
     "height": 64
    },
    {
     "id": 11,
     "name": "",
     "type": "",
     "rotation": 0,
     "visible": true,
     "gid": 37,
     "x": 467,
     "y": 1107,
     "width": 64,
     "height": 64
    },
    {
     "id": 12,
     "name": "",
     "type": "",
     "rotation": 0,
     "visible": true,
     "gid": 111,
     "x": 379,
     "y": 1075,
     "width": 80,
     "height": 82
    },
    {
     "id": 13,
     "name": "",
     "type": "",
     "rotation": 0,
     "visible": true,
     "gid": 110,
     "x": 576,
     "y": 1171,
     "width": 64,
     "height": 64
    },
    {
     "id": 14,
     "name": "",
     "type": "",
     "rotation": 0,
     "visible": true,
     "gid": 112,
     "x": 1312,
     "y": 1094,
     "width": 64,
     "height": 64
    },
    {
     "id": 15,
     "name": "",
     "type": "",
     "rotation": 0,
     "visible": true,
     "gid": 58,
     "x": 288,
     "y": 857,
     "width": 64,
     "height": 64
    },
    {
     "id": 16,
     "name": "",
     "type": "",
     "rotation": 0,
     "visible": true,
     "gid": 17,
     "x": 1568,
     "y": 934,
     "width": 64,
     "height": 64
    },
    {
     "id": 17,
     "name": "",
     "type": "",
     "rotation": 0,
     "visible": true,
     "gid": 43,
     "x": 1408,
     "y": 608,
     "width": 64,
     "height": 64
    },
    {
     "id": 18,
     "name": "",
     "type": "",
     "rotation": 0,
     "visible": true,
     "gid": 72,
     "x": 1001,
     "y": 832,
     "width": 64,
     "height": 64
    },
    {
     "id": 19,
     "name": "",
     "type": "",
     "rotation": 0,
     "visible": true,
     "gid": 84,
     "x": 1299,
     "y": 857,
     "width": 64,
     "height": 64
    },
    {
     "id": 20,
     "name": "",
     "type": "",
     "rotation": 0,
     "visible": true,
     "gid": 117,
     "x": 1112,
     "y": 607,
     "width": 64,
     "height": 64
    },
    {
     "id": 21,
     "name": "",
     "type": "",
     "rotation": 0,
     "visible": true,
     "gid": 82,
     "x": 144,
     "y": 880,
     "width": 64,
     "height": 64
    },
    {
     "id": 22,
     "name": "",
     "type": "",
     "rotation": 0,
     "visible": true,
     "gid": 81,
     "x": 217,
     "y": 944,
     "width": 64,
     "height": 64
    },
    {
     "id": 23,
     "name": "",
     "type": "",
     "rotation": 0,
     "visible": true,
     "gid": 81,
     "x": 496,
     "y": 720,
     "width": 64,
     "height": 64
    },
    {
     "id": 24,
     "name": "",
     "type": "",
     "rotation": 0,
     "visible": true,
     "gid": 2147483729,
     "x": 656,
     "y": 784,
     "width": 64,
     "height": 64
    },
    {
     "id": 25,
     "name": "",
     "type": "",
     "rotation": 0,
     "visible": true,
     "gid": 82,
     "x": 1008,
     "y": 464,
     "width": 64,
     "height": 64
    },
    {
     "id": 26,
     "name": "",
     "type": "",
     "rotation": 0,
     "visible": true,
     "gid": 2147483729,
     "x": 1062,
     "y": 940,
     "width": 64,
     "height": 64
    },
    {
     "id": 27,
     "name": "",
     "type": "",
     "rotation": 0,
     "visible": true,
     "gid": 2147483729,
     "x": 1488,
     "y": 880,
     "width": 64,
     "height": 64
    },
    {
     "id": 28,
     "name": "",
     "type": "",
     "rotation": 0,
     "visible": true,
     "gid": 81,
     "x": 1721,
     "y": 889,
     "width": 64,
     "height": 64
    },
    {
     "id": 29,
     "name": "",
     "type": "",
     "rotation": 0,
     "visible": true,
     "gid": 2147483730,
     "x": 1808,
     "y": 966,
     "width": 64,
     "height": 64
    },
    {
     "id": 30,
     "name": "",
     "type": "",
     "rotation": 0,
     "visible": true,
     "gid": 2147483729,
     "x": 979,
     "y": 208,
     "width": 64,
     "height": 64
    },
    {
     "id": 31,
     "name": "",
     "type": "",
     "rotation": 0,
     "visible": true,
     "gid": 2147483730,
     "x": 1088,
     "y": 390,
     "width": 64,
     "height": 64
    },
    {
     "id": 32,
     "name": "",
     "type": "",
     "rotation": 0,
     "visible": true,
     "gid": 27,
     "x": 307,
     "y": 294,
     "width": 64,
     "height": 64
    },
    {
     "id": 33,
     "name": "",
     "type": "",
     "rotation": 0,
     "visible": true,
     "gid": 27,
     "x": 134,
     "y": 400,
     "width": 64,
     "height": 64
    },
    {
     "id": 34,
     "name": "",
     "type": "",
     "rotation": 0,
     "visible": true,
     "gid": 70,
     "x": 716,
     "y": 953,
     "width": 64,
     "height": 64
    },
    {
     "id": 35,
     "name": "",
     "type": "",
     "rotation": 0,
     "visible": true,
     "gid": 71,
     "x": 1036,
     "y": 947,
     "width": 64,
     "height": 64
    },
    {
     "id": 36,
     "name": "",
     "type": "",
     "rotation": 0,
     "visible": true,
     "gid": 25,
     "x": 787,
     "y": 755,
     "width": 64,
     "height": 64
    },
    {
     "id": 37,
     "name": "",
     "type": "",
     "rotation": 0,
     "visible": true,
     "gid": 25,
     "x": 1433,
     "y": 307,
     "width": 64,
     "height": 64
    },
    {
     "id": 38,
     "name": "",
     "type": "",
     "rotation": 0,
     "visible": true,
     "gid": 101,
     "x": 160,
     "y": 1264,
     "width": 64,
     "height": 64
    },
    {
     "id": 39,
     "name": "",
     "type": "",
     "rotation": 0,
     "visible": true,
     "gid": 2147483749,
     "x": 1600,
     "y": 1296,
     "width": 64,
     "height": 64
    },
    {
     "id": 40,
     "name": "",
     "type": "",
     "rotation": 0,
     "visible": true,
     "gid": 32,
     "x": 960,
     "y": 1318,
     "width": 64,
     "height": 64
    },
    {
     "id": 41,
     "name": "",
     "type": "",
     "rotation": 0,
     "visible": true,
     "gid": 101,
     "x": 1792,
     "y": 1177,
     "width": 64,
     "height": 64
    },
    {
     "id": 42,
     "name": "",
     "type": "",
     "rotation": 0,
     "visible": true,
     "gid": 75,
     "x": 108,
     "y": 1004,
     "width": 28,
     "height": 24
    },
    {
     "id": 43,
     "name": "",
     "type": "",
     "rotation": 0,
     "visible": true,
     "gid": 103,
     "x": 275,
     "y": 998,
     "width": 64,
     "height": 64
    },
    {
     "id": 44,
     "name": "",
     "type": "",
     "rotation": 0,
     "visible": true,
     "gid": 61,
     "x": 377,
     "y": 716,
     "width": 64,
     "height": 64
    },
    {
     "id": 45,
     "name": "",
     "type": "",
     "rotation": 0,
     "visible": true,
     "gid": 98,
     "x": 256,
     "y": 1299,
     "width": 64,
     "height": 64
    },
    {
     "id": 46,
     "name": "",
     "type": "",
     "rotation": 0,
     "visible": true,
     "gid": 66,
     "x": 787,
     "y": 1190,
     "width": 64,
     "height": 64
    },
    {
     "id": 47,
     "name": "",
     "type": "",
     "rotation": 0,
     "visible": true,
     "gid": 2147483701,
     "x": 1011,
     "y": 1164,
     "width": 64,
     "height": 64
    },
    {
     "id": 48,
     "name": "",
     "type": "",
     "rotation": 0,
     "visible": true,
     "gid": 96,
     "x": 1427,
     "y": 1203,
     "width": 64,
     "height": 64
    },
    {
     "id": 49,
     "name": "",
     "type": "",
     "rotation": 0,
     "visible": true,
     "gid": 76,
     "x": 1619,
     "y": 1158,
     "width": 64,
     "height": 64
    },
    {
     "id": 50,
     "name": "",
     "type": "",
     "rotation": 0,
     "visible": true,
     "gid": 24,
     "x": 691,
     "y": 652,
     "width": 64,
     "height": 64
    },
    {
     "id": 51,
     "name": "",
     "type": "",
     "rotation": 0,
     "visible": true,
     "gid": 39,
     "x": 1280,
     "y": 316,
     "width": 64,
     "height": 64
    }
   ]
  },
  {
   "id": 4,
   "name": "spawns",
   "type": "objectgroup",
   "draworder": "topdown",
   "opacity": 1,
   "visible": true,
   "x": 0,
   "y": 0,
   "color": "#ff5a5a",
   "objects": [
    {
     "id": 52,
     "name": "",
     "type": "",
     "rotation": 0,
     "visible": true,
     "x": 1152,
     "y": 128,
     "width": 352,
     "height": 352,
     "properties": [
      {
       "name": "monster",
       "type": "string",
       "value": "rice-crab"
      },
      {
       "name": "count",
       "type": "int",
       "value": 10
      }
     ]
    },
    {
     "id": 53,
     "name": "",
     "type": "",
     "rotation": 0,
     "visible": true,
     "x": 1536,
     "y": 128,
     "width": 224,
     "height": 352,
     "properties": [
      {
       "name": "monster",
       "type": "string",
       "value": "scarecrow"
      },
      {
       "name": "count",
       "type": "int",
       "value": 4
      }
     ]
    },
    {
     "id": 54,
     "name": "",
     "type": "",
     "rotation": 0,
     "visible": true,
     "x": 640,
     "y": 320,
     "width": 288,
     "height": 256,
     "properties": [
      {
       "name": "monster",
       "type": "string",
       "value": "lotus-frog"
      },
      {
       "name": "count",
       "type": "int",
       "value": 6
      }
     ]
    },
    {
     "id": 55,
     "name": "",
     "type": "",
     "rotation": 0,
     "visible": true,
     "x": 1536,
     "y": 736,
     "width": 256,
     "height": 160,
     "properties": [
      {
       "name": "monster",
       "type": "string",
       "value": "grasshopper"
      },
      {
       "name": "count",
       "type": "int",
       "value": 5
      }
     ]
    },
    {
     "id": 56,
     "name": "",
     "type": "",
     "rotation": 0,
     "visible": true,
     "x": 1344,
     "y": 928,
     "width": 448,
     "height": 96,
     "properties": [
      {
       "name": "monster",
       "type": "string",
       "value": "red-crab"
      },
      {
       "name": "count",
       "type": "int",
       "value": 8
      }
     ]
    },
    {
     "id": 57,
     "name": "",
     "type": "",
     "rotation": 0,
     "visible": true,
     "x": 64,
     "y": 928,
     "width": 320,
     "height": 96,
     "properties": [
      {
       "name": "monster",
       "type": "string",
       "value": "octopus"
      },
      {
       "name": "count",
       "type": "int",
       "value": 5
      }
     ]
    }
   ]
  },
  {
   "id": 5,
   "name": "npcs",
   "type": "objectgroup",
   "draworder": "topdown",
   "opacity": 1,
   "visible": true,
   "x": 0,
   "y": 0,
   "color": "#ffd84a",
   "objects": [
    {
     "id": 58,
     "name": "",
     "type": "",
     "rotation": 0,
     "visible": true,
     "x": 1299,
     "y": 879,
     "width": 0,
     "height": 0,
     "point": true,
     "properties": [
      {
       "name": "npc",
       "type": "string",
       "value": "npc_monk"
      }
     ]
    },
    {
     "id": 59,
     "name": "",
     "type": "",
     "rotation": 0,
     "visible": true,
     "x": 1112,
     "y": 629,
     "width": 0,
     "height": 0,
     "point": true,
     "properties": [
      {
       "name": "npc",
       "type": "string",
       "value": "npc_headman"
      }
     ]
    }
   ]
  },
  {
   "id": 6,
   "name": "start",
   "type": "objectgroup",
   "draworder": "topdown",
   "opacity": 1,
   "visible": true,
   "x": 0,
   "y": 0,
   "color": "#7ee08a",
   "objects": [
    {
     "id": 60,
     "name": "",
     "type": "",
     "rotation": 0,
     "visible": true,
     "x": 1184,
     "y": 1216,
     "width": 0,
     "height": 0,
     "point": true
    }
   ]
  },
  {
   "id": 7,
   "name": "exits",
   "type": "objectgroup",
   "draworder": "topdown",
   "opacity": 1,
   "visible": true,
   "x": 0,
   "y": 0,
   "color": "#6cc8ff",
   "objects": [
    {
     "id": 61,
     "name": "",
     "type": "",
     "rotation": 0,
     "visible": true,
     "x": 736,
     "y": 0,
     "width": 224,
     "height": 32,
     "properties": [
      {
       "name": "to",
       "type": "string",
       "value": "todo-nakhon"
      },
      {
       "name": "label",
       "type": "string",
       "value": "นครสุวรรณ (ยังไม่เปิด)"
      }
     ]
    },
    {
     "id": 62,
     "name": "",
     "type": "",
     "rotation": 0,
     "visible": true,
     "x": 1888,
     "y": 608,
     "width": 32,
     "height": 128,
     "properties": [
      {
       "name": "to",
       "type": "string",
       "value": "thung-na"
      },
      {
       "name": "label",
       "type": "string",
       "value": "ทุ่งนาริมคลอง"
      }
     ]
    },
    {
     "id": 63,
     "name": "",
     "type": "",
     "rotation": 0,
     "visible": true,
     "x": 0,
     "y": 704,
     "width": 32,
     "height": 128,
     "properties": [
      {
       "name": "to",
       "type": "string",
       "value": "todo-pa-phru"
      },
      {
       "name": "label",
       "type": "string",
       "value": "ป่าพรุสวนยาง (ยังไม่เปิด)"
      }
     ]
    }
   ]
  }
 ],
 "nextlayerid": 8,
 "nextobjectid": 64,
 "tilesets": [
  {
   "firstgid": 1,
   "source": "tilesets/terrain.tsx"
  },
  {
   "firstgid": 7,
   "source": "tilesets/block.tsx"
  },
  {
   "firstgid": 8,
   "source": "tilesets/props.tsx"
  }
 ]
}