{
 "type": "map",
 "version": "1.10",
 "tiledversion": "1.12.2",
 "orientation": "orthogonal",
 "renderorder": "right-down",
 "width": 30,
 "height": 22,
 "tilewidth": 64,
 "tileheight": 64,
 "infinite": false,
 "properties": [
  {
   "name": "id",
   "type": "string",
   "value": "thung-na"
  },
  {
   "name": "name",
   "type": "string",
   "value": "ทุ่งนาริมคลอง"
  }
 ],
 "layers": [
  {
   "id": 1,
   "name": "ground",
   "type": "tilelayer",
   "width": 30,
   "height": 22,
   "x": 0,
   "y": 0,
   "opacity": 1,
   "visible": true,
   "data": [
    6,
    6,
    6,
    6,
    6,
    6,
    6,
    6,
    6,
    6,
    6,
    6,
    6,
    6,
    4,
    4,
    6,
    6,
    6,
    6,
    6,
    6,
    6,
    6,
    6,
    6,
    6,
    6,
    6,
    6,
    6,
    1,
    1,
    6,
    1,
    1,
    6,
    6,
    1,
    1,
    6,
    1,
    1,
    1,
    4,
    1,
    1,
    6,
    1,
    1,
    6,
    6,
    1,
    1,
    6,
    1,
    1,
    6,
    6,
    6,
    6,
    6,
    1,
    5,
    5,
    1,
    5,
    5,
    1,
    5,
    5,
    1,
    1,
    1,
    4,
    1,
    1,
    1,
    1,
    5,
    5,
    1,
    5,
    5,
    1,
    5,
    5,
    1,
    6,
    6,
    6,
    6,
    1,
    5,
    5,
    5,
    5,
    5,
    5,
    5,
    5,
    5,
    1,
    1,
    4,
    1,
    1,
    6,
    6,
    5,
    5,
    5,
    5,
    5,
    5,
    5,
    5,
    5,
    6,
    6,
    6,
    6,
    1,
    5,
    5,
    1,
    5,
    5,
    1,
    5,
    5,
    1,
    1,
    1,
    4,
    4,
    4,
    6,
    6,
    5,
    5,
    1,
    5,
    5,
    1,
    5,
    5,
    1,
    6,
    6,
    6,
    1,
    1,
    5,
    5,
    5,
    5,
    5,
    5,
    5,
    5,
    5,
    1,
    1,
    4,
    4,
    4,
    4,
    4,
    5,
    5,
    5,
    5,
    5,
    5,
    5,
    5,
    5,
    1,
    6,
    6,
    1,
    1,
    5,
    5,
    5,
    5,
    5,
    5,
    5,
    5,
    5,
    1,
    4,
    4,
    1,
    1,
    1,
    1,
    5,
    4,
    4,
    5,
    5,
    5,
    5,
    5,
    5,
    1,
    6,
    6,
    6,
    1,
    1,
    1,
    1,
    4,
    4,
    4,
    4,
    4,
    4,
    4,
    1,
    4,
    1,
    1,
    1,
    1,
    1,
    1,
    1,
    4,
    4,
    1,
    1,
    1,
    1,
    6,
    6,
    3,
    3,
    3,
    2,
    2,
    2,
    2,
    3,
    3,
    3,
    3,
    3,
    3,
    3,
    4,
    4,
    1,
    1,
    1,
    2,
    3,
    3,
    3,
    3,
    3,
    3,
    2,
    2,
    6,
    6,
    3,
    3,
    3,
    3,
    3,
    3,
    3,
    3,
    3,
    3,
    3,
    3,
    3,
    3,
    3,
    3,
    3,
    3,
    3,
    3,
    3,
    3,
    3,
    3,
    3,
    3,
    3,
    3,
    3,
    3,
    6,
    2,
    3,
    3,
    3,
    3,
    3,
    2,
    2,
    2,
    1,
    1,
    2,
    2,
    3,
    3,
    3,
    3,
    3,
    3,
    3,
    3,
    2,
    2,
    2,
    2,
    3,
    3,
    3,
    3,
    6,
    6,
    4,
    4,
    4,
    4,
    4,
    4,
    1,
    1,
    1,
    1,
    1,
    1,
    4,
    4,
    2,
    2,
    2,
    4,
    4,
    4,
    4,
    4,
    1,
    1,
    1,
    2,
    6,
    6,
    6,
    6,
    1,
    5,
    5,
    1,
    5,
    5,
    4,
    4,
    4,
    4,
    4,
    1,
    4,
    4,
    4,
    4,
    4,
    4,
    5,
    5,
    1,
    5,
    5,
    1,
    5,
    5,
    6,
    6,
    6,
    6,
    1,
    5,
    5,
    5,
    5,
    5,
    5,
    1,
    1,
    4,
    4,
    4,
    4,
    1,
    1,
    1,
    1,
    1,
    5,
    5,
    5,
    5,
    5,
    5,
    5,
    5,
    6,
    6,
    6,
    1,
    1,
    5,
    5,
    1,
    5,
    5,
    1,
    1,
    1,
    6,
    6,
    1,
    4,
    1,
    1,
    1,
    1,
    1,
    5,
    5,
    1,
    5,
    5,
    1,
    5,
    5,
    1,
    6,
    1,
    1,
    1,
    5,
    5,
    5,
    5,
    5,
    5,
    1,
    1,
    6,
    6,
    6,
    4,
    1,
    1,
    1,
    1,
    1,
    5,
    5,
    5,
    5,
    5,
    5,
    5,
    5,
    1,
    6,
    1,
    1,
    1,
    5,
    5,
    5,
    5,
    5,
    5,
    1,
    1,
    6,
    6,
    6,
    4,
    1,
    1,
    1,
    1,
    1,
    5,
    5,
    5,
    5,
    5,
    5,
    5,
    5,
    6,
    6,
    6,
    1,
    1,
    1,
    1,
    1,
    1,
    1,
    1,
    1,
    1,
    1,
    1,
    1,
    4,
    4,
    1,
    1,
    1,
    1,
    1,
    1,
    1,
    1,
    1,
    1,
    1,
    1,
    6,
    6,
    6,
    1,
    1,
    6,
    6,
    6,
    1,
    1,
    1,
    1,
    1,
    1,
    1,
    1,
    4,
    4,
    1,
    1,
    1,
    1,
    1,
    1,
    1,
    1,
    1,
    1,
    1,
    1,
    6,
    6,
    6,
    1,
    1,
    1,
    6,
    6,
    1,
    1,
    1,
    1,
    1,
    1,
    1,
    1,
    4,
    4,
    1,
    1,
    1,
    1,
    1,
    1,
    1,
    1,
    1,
    1,
    1,
    1,
    1,
    6,
    6,
    6,
    6,
    6,
    6,
    6,
    6,
    6,
    6,
    6,
    6,
    6,
    6,
    1,
    4,
    4,
    1,
    6,
    6,
    6,
    6,
    6,
    6,
    6,
    6,
    6,
    6,
    6,
    6,
    6,
    6,
    6,
    6,
    6,
    6,
    6,
    6,
    6,
    6,
    6,
    6,
    6,
    6,
    1,
    4,
    4,
    1,
    6,
    6,
    6,
    6,
    6,
    6,
    6,
    6,
    6,
    6,
    6,
    6,
    6
   ]
  },
  {
   "id": 2,
   "name": "block",
   "type": "tilelayer",
   "width": 30,
   "height": 22,
   "x": 0,
   "y": 0,
   "opacity": 0.6,
   "visible": true,
   "data": [
    0,
    0,
    0,
    0,
    0,
    0,
    0,
    0,
    0,
    0,
    0,
    0,
    0,
    0,
    0,
    0,
    0,
    0,
    0,
    0,
    0,
    0,
    0,
    0,
    0,
    0,
    0,
    0,
    0,
    0,
    0,
    0,
    0,
    0,
    0,
    0,
    0,
    0,
    0,
    0,
    0,
    0,
    0,
    0,
    0,
    0,
    0,
    0,
    0,
    0,
    0,
    0,
    0,
    0,
    0,
    0,
    0,
    0,
    0,
    0,
    0,
    0,
    0,
    0,
    0,
    0,
    0,
    0,
    0,
    0,
    0,
    0,
    0,
    0,
    0,
    0,
    0,
    0,
    0,
    0,
    0,
    0,
    0,
    0,
    0,
    0,
    0,
    0,
    0,
    0,
    0,
    0,
    0,
    0,
    0,
    0,
    0,
    0,
    0,
    0,
    0,
    0,
    0,
    0,
    0,
    0,
    0,
    0,
    0,
    0,
    0,
    0,
    0,
    0,
    0,
    0,
    0,
    0,
    0,
    0,
    0,
    0,
    0,
    0,
    0,
    0,
    0,
    0,
    0,
    0,
    0,
    0,
    0,
    0,
    0,
    0,
    0,
    0,
    0,
    0,
    0,
    0,
    0,
    0,
    0,
    0,
    0,
    0,
    0,
    0,
    0,
    0,
    0,
    0,
    0,
    0,
    0,
    0,
    0,
    0,
    0,
    0,
    0,
    0,
    0,
    0,
    0,
    0,
    0,
    0,
    0,
    0,
    0,
    0,
    0,
    0,
    0,
    0,
    0,
    0,
    0,
    0,
    0,
    0,
    0,
    0,
    0,
    0,
    0,
    0,
    0,
    0,
    0,
    0,
    0,
    0,
    0,
    0,
    0,
    0,
    0,
    0,
    0,
    0,
    0,
    0,
    0,
    0,
    0,
    0,
    0,
    0,
    0,
    0,
    0,
    0,
    0,
    0,
    0,
    0,
    0,
    0,
    0,
    0,
    0,
    0,
    0,
    0,
    0,
    0,
    0,
    0,
    0,
    0,
    0,
    0,
    0,
    0,
    0,
    0,
    0,
    0,
    0,
    0,
    0,
    0,
    0,
    0,
    0,
    0,
    0,
    0,
    0,
    0,
    0,
    0,
    0,
    0,
    0,
    0,
    0,
    0,
    0,
    0,
    0,
    0,
    0,
    0,
    0,
    0,
    0,
    0,
    0,
    0,
    0,
    0,
    0,
    0,
    0,
    0,
    0,
    0,
    0,
    0,
    0,
    0,
    0,
    0,
    0,
    0,
    0,
    0,
    0,
    0,
    0,
    0,
    0,
    0,
    0,
    0,
    0,
    0,
    0,
    0,
    0,
    0,
    0,
    0,
    0,
    0,
    0,
    0,
    0,
    0,
    0,
    0,
    0,
    0,
    0,
    0,
    0,
    0,
    0,
    0,
    0,
    0,
    0,
    0,
    0,
    0,
    0,
    0,
    0,
    0,
    0,
    0,
    0,
    0,
    0,
    0,
    0,
    0,
    0,
    0,
    0,
    0,
    0,
    0,
    0,
    0,
    0,
    0,
    0,
    0,
    0,
    0,
    0,
    0,
    0,
    0,
    0,
    0,
    0,
    0,
    0,
    0,
    0,
    0,
    0,
    0,
    0,
    0,
    0,
    0,
    0,
    0,
    0,
    0,
    0,
    0,
    0,
    0,
    0,
    0,
    0,
    0,
    0,
    0,
    0,
    0,
    0,
    0,
    0,
    0,
    0,
    0,
    0,
    0,
    0,
    0,
    0,
    0,
    0,
    0,
    0,
    0,
    0,
    0,
    0,
    0,
    0,
    0,
    0,
    0,
    0,
    0,
    0,
    0,
    0,
    0,
    0,
    0,
    0,
    0,
    0,
    0,
    0,
    0,
    0,
    0,
    0,
    0,
    0,
    0,
    0,
    0,
    0,
    0,
    0,
    0,
    0,
    0,
    0,
    0,
    0,
    0,
    0,
    0,
    0,
    0,
    0,
    0,
    0,
    0,
    0,
    0,
    0,
    0,
    0,
    0,
    0,
    0,
    0,
    0,
    0,
    0,
    0,
    0,
    0,
    0,
    0,
    0,
    0,
    0,
    0,
    0,
    0,
    0,
    0,
    0,
    0,
    0,
    0,
    0,
    0,
    0,
    0,
    0,
    0,
    0,
    0,
    0,
    0,
    0,
    0,
    0,
    0,
    0,
    0,
    0,
    0,
    0,
    0,
    0,
    0,
    0,
    0,
    0,
    0,
    0,
    0,
    0,
    0,
    0,
    0,
    0,
    0,
    0,
    0,
    0,
    0,
    0,
    0,
    0,
    0,
    0,
    0,
    0,
    0,
    0,
    0,
    0,
    0,
    0,
    0,
    0,
    0,
    0,
    0,
    0,
    0,
    0,
    0,
    0,
    0,
    0,
    0,
    0,
    0,
    0,
    0,
    0,
    0,
    0,
    0,
    0,
    0,
    0,
    0,
    0,
    0,
    0,
    0,
    0,
    0,
    0,
    0,
    0,
    0,
    0,
    0,
    0,
    0,
    0,
    0,
    0,
    0,
    0,
    0,
    0,
    0,
    0,
    0,
    0,
    0,
    0,
    0,
    0,
    0,
    0,
    0,
    0,
    0,
    0,
    0,
    0,
    0,
    0,
    0,
    0,
    0,
    0,
    0,
    0,
    0,
    0,
    0,
    0,
    0,
    0,
    0,
    0,
    0,
    0,
    0,
    0,
    0,
    0,
    0,
    0,
    0,
    0,
    0,
    0,
    0,
    0,
    0,
    0,
    0,
    0,
    0,
    0,
    0,
    0,
    0,
    0,
    0,
    0,
    0,
    0,
    0,
    0,
    0,
    0,
    0,
    0,
    0,
    0,
    0,
    0,
    0,
    0,
    0,
    0,
    0,
    0,
    0,
    0,
    0,
    0
   ]
  },
  {
   "id": 3,
   "name": "props",
   "type": "objectgroup",
   "draworder": "topdown",
   "opacity": 1,
   "visible": true,
   "x": 0,
   "y": 0,
   "objects": [
    {
     "id": 1,
     "name": "",
     "type": "",
     "rotation": 0,
     "visible": true,
     "gid": 86,
     "x": 963,
     "y": 579,
     "width": 40,
     "height": 40
    },
    {
     "id": 2,
     "name": "",
     "type": "",
     "rotation": 0,
     "visible": true,
     "gid": 86,
     "x": 963,
     "y": 611,
     "width": 40,
     "height": 40
    },
    {
     "id": 3,
     "name": "",
     "type": "",
     "rotation": 0,
     "visible": true,
     "gid": 86,
     "x": 963,
     "y": 643,
     "width": 40,
     "height": 40
    },
    {
     "id": 4,
     "name": "",
     "type": "",
     "rotation": 0,
     "visible": true,
     "gid": 86,
     "x": 963,
     "y": 675,
     "width": 40,
     "height": 40
    },
    {
     "id": 5,
     "name": "",
     "type": "",
     "rotation": 0,
     "visible": true,
     "gid": 86,
     "x": 963,
     "y": 707,
     "width": 40,
     "height": 40
    },
    {
     "id": 6,
     "name": "",
     "type": "",
     "rotation": 0,
     "visible": true,
     "gid": 86,
     "x": 963,
     "y": 739,
     "width": 40,
     "height": 40
    },
    {
     "id": 7,
     "name": "",
     "type": "",
     "rotation": 0,
     "visible": true,
     "gid": 49,
     "x": 784,
     "y": 409,
     "width": 48,
     "height": 45
    },
    {
     "id": 8,
     "name": "",
     "type": "",
     "rotation": 0,
     "visible": true,
     "gid": 90,
     "x": 1100,
     "y": 448,
     "width": 64,
     "height": 64
    },
    {
     "id": 9,
     "name": "",
     "type": "",
     "rotation": 0,
     "visible": true,
     "gid": 11,
     "x": 688,
     "y": 806,
     "width": 64,
     "height": 64
    },
    {
     "id": 10,
     "name": "",
     "type": "",
     "rotation": 0,
     "visible": true,
     "gid": 120,
     "x": 816,
     "y": 563,
     "width": 44,
     "height": 43
    },
    {
     "id": 11,
     "name": "",
     "type": "",
     "rotation": 0,
     "visible": true,
     "gid": 80,
     "x": 1062,
     "y": 300,
     "width": 52,
     "height": 38
    },
    {
     "id": 12,
     "name": "",
     "type": "",
     "rotation": 0,
     "visible": true,
     "gid": 91,
     "x": 736,
     "y": 300,
     "width": 14,
     "height": 16
    },
    {
     "id": 13,
     "name": "",
     "type": "",
     "rotation": 0,
     "visible": true,
     "gid": 91,
     "x": 1139,
     "y": 563,
     "width": 14,
     "height": 16
    },
    {
     "id": 14,
     "name": "",
     "type": "",
     "rotation": 0,
     "visible": true,
     "gid": 100,
     "x": 480,
     "y": 284,
     "width": 30,
     "height": 33
    },
    {
     "id": 15,
     "name": "",
     "type": "",
     "rotation": 0,
     "visible": true,
     "gid": 100,
     "x": 1504,
     "y": 281,
     "width": 30,
     "height": 33
    },
    {
     "id": 16,
     "name": "",
     "type": "",
     "rotation": 0,
     "visible": true,
     "gid": 100,
     "x": 1424,
     "y": 928,
     "width": 30,
     "height": 33
    },
    {
     "id": 17,
     "name": "",
     "type": "",
     "rotation": 0,
     "visible": true,
     "gid": 113,
     "x": 368,
     "y": 294,
     "width": 56,
     "height": 73
    },
    {
     "id": 18,
     "name": "",
     "type": "",
     "rotation": 0,
     "visible": true,
     "gid": 113,
     "x": 563,
     "y": 294,
     "width": 56,
     "height": 73
    },
    {
     "id": 19,
     "name": "",
     "type": "",
     "rotation": 0,
     "visible": true,
     "gid": 113,
     "x": 1395,
     "y": 297,
     "width": 56,
     "height": 73
    },
    {
     "id": 20,
     "name": "",
     "type": "",
     "rotation": 0,
     "visible": true,
     "gid": 113,
     "x": 1587,
     "y": 297,
     "width": 56,
     "height": 73
    },
    {
     "id": 21,
     "name": "",
     "type": "",
     "rotation": 0,
     "visible": true,
     "gid": 113,
     "x": 368,
     "y": 934,
     "width": 56,
     "height": 73
    },
    {
     "id": 22,
     "name": "",
     "type": "",
     "rotation": 0,
     "visible": true,
     "gid": 113,
     "x": 1459,
     "y": 934,
     "width": 56,
     "height": 73
    },
    {
     "id": 23,
     "name": "",
     "type": "",
     "rotation": 0,
     "visible": true,
     "gid": 113,
     "x": 1651,
     "y": 934,
     "width": 56,
     "height": 73
    },
    {
     "id": 24,
     "name": "",
     "type": "",
     "rotation": 0,
     "visible": true,
     "gid": 12,
     "x": 1075,
     "y": 921,
     "width": 40,
     "height": 38
    },
    {
     "id": 25,
     "name": "",
     "type": "",
     "rotation": 0,
     "visible": true,
     "gid": 69,
     "x": 832,
     "y": 1168,
     "width": 52,
     "height": 55
    },
    {
     "id": 26,
     "name": "",
     "type": "",
     "rotation": 0,
     "visible": true,
     "gid": 57,
     "x": 1036,
     "y": 1158,
     "width": 44,
     "height": 41
    },
    {
     "id": 27,
     "name": "",
     "type": "",
     "rotation": 0,
     "visible": true,
     "gid": 34,
     "x": 883,
     "y": 1299,
     "width": 40,
     "height": 30
    },
    {
     "id": 28,
     "name": "",
     "type": "",
     "rotation": 0,
     "visible": true,
     "gid": 34,
     "x": 1043,
     "y": 1286,
     "width": 40,
     "height": 30
    },
    {
     "id": 29,
     "name": "",
     "type": "",
     "rotation": 0,
     "visible": true,
     "gid": 68,
     "x": 672,
     "y": 636,
     "width": 18,
     "height": 16
    },
    {
     "id": 30,
     "name": "",
     "type": "",
     "rotation": 0,
     "visible": true,
     "gid": 68,
     "x": 1168,
     "y": 691,
     "width": 18,
     "height": 16
    },
    {
     "id": 31,
     "name": "",
     "type": "",
     "rotation": 0,
     "visible": true,
     "gid": 68,
     "x": 409,
     "y": 678,
     "width": 18,
     "height": 16
    },
    {
     "id": 32,
     "name": "",
     "type": "",
     "rotation": 0,
     "visible": true,
     "gid": 68,
     "x": 1440,
     "y": 652,
     "width": 18,
     "height": 16
    },
    {
     "id": 33,
     "name": "",
     "type": "",
     "rotation": 0,
     "visible": true,
     "gid": 42,
     "x": 1299,
     "y": 556,
     "width": 18,
     "height": 10
    },
    {
     "id": 34,
     "name": "",
     "type": "",
     "rotation": 0,
     "visible": true,
     "gid": 75,
     "x": 556,
     "y": 684,
     "width": 28,
     "height": 24
    },
    {
     "id": 35,
     "name": "",
     "type": "",
     "rotation": 0,
     "visible": true,
     "gid": 115,
     "x": 1216,
     "y": 729,
     "width": 14,
     "height": 14
    },
    {
     "id": 36,
     "name": "",
     "type": "",
     "rotation": 0,
     "visible": true,
     "gid": 115,
     "x": 256,
     "y": 691,
     "width": 14,
     "height": 14
    }
   ]
  },
  {
   "id": 4,
   "name": "spawns",
   "type": "objectgroup",
   "draworder": "topdown",
   "opacity": 1,
   "visible": true,
   "x": 0,
   "y": 0,
   "color": "#ff5a5a",
   "objects": []
  },
  {
   "id": 5,
   "name": "npcs",
   "type": "objectgroup",
   "draworder": "topdown",
   "opacity": 1,
   "visible": true,
   "x": 0,
   "y": 0,
   "color": "#ffd84a",
   "objects": []
  },
  {
   "id": 6,
   "name": "start",
   "type": "objectgroup",
   "draworder": "topdown",
   "opacity": 1,
   "visible": true,
   "x": 0,
   "y": 0,
   "color": "#7ee08a",
   "objects": [
    {
     "id": 37,
     "name": "",
     "type": "",
     "rotation": 0,
     "visible": true,
     "x": 160,
     "y": 1024,
     "width": 0,
     "height": 0,
     "point": true
    }
   ]
  },
  {
   "id": 7,
   "name": "exits",
   "type": "objectgroup",
   "draworder": "topdown",
   "opacity": 1,
   "visible": true,
   "x": 0,
   "y": 0,
   "color": "#6cc8ff",
   "objects": [
    {
     "id": 38,
     "name": "",
     "type": "",
     "rotation": 0,
     "visible": true,
     "x": 832,
     "y": 1376,
     "width": 256,
     "height": 32,
     "properties": [
      {
       "name": "to",
       "type": "string",
       "value": "todo-pa-long"
      },
      {
       "name": "label",
       "type": "string",
       "value": "ป่าชายเลน (ยังไม่เปิด)"
      },
      {
       "name": "entry",
       "type": "string",
       "value": "north"
      }
     ]
    },
    {
     "id": 39,
     "name": "",
     "type": "",
     "rotation": 0,
     "visible": true,
     "x": 832,
     "y": 0,
     "width": 256,
     "height": 32,
     "properties": [
      {
       "name": "to",
       "type": "string",
       "value": "todo-nakhon"
      },
      {
       "name": "label",
       "type": "string",
       "value": "นครสุวรรณ (ยังไม่เปิด)"
      },
      {
       "name": "entry",
       "type": "string",
       "value": "south"
      }
     ]
    },
    {
     "id": 40,
     "name": "",
     "type": "",
     "rotation": 0,
     "visible": true,
     "x": 0,
     "y": 928,
     "width": 32,
     "height": 192,
     "properties": [
      {
       "name": "to",
       "type": "string",
       "value": "ban-pak-ao"
      },
      {
       "name": "label",
       "type": "string",
       "value": "บ้านปากอ่าว"
      },
      {
       "name": "entry",
       "type": "string",
       "value": "east"
      }
     ]
    }
   ]
  },
  {
   "id": 8,
   "name": "entries",
   "type": "objectgroup",
   "draworder": "topdown",
   "opacity": 1,
   "visible": true,
   "x": 0,
   "y": 0,
   "color": "#c08cff",
   "objects": [
    {
     "id": 41,
     "name": "west",
     "type": "",
     "rotation": 0,
     "visible": true,
     "x": 160,
     "y": 1024,
     "width": 0,
     "height": 0,
     "point": true
    }
   ]
  }
 ],
 "nextlayerid": 9,
 "nextobjectid": 42,
 "tilesets": [
  {
   "firstgid": 1,
   "source": "tilesets/terrain.tsx"
  },
  {
   "firstgid": 7,
   "source": "tilesets/block.tsx"
  },
  {
   "firstgid": 8,
   "source": "tilesets/props.tsx"
  }
 ]
}